X:4
T:Mille regretz
C:Tielman Susato
S:Susato1551
R:Pavane
M:4/2%org: C|
L:1/2
T:Bassus
K:C bass
e4|f2d2|e3f|gad2|a2aa|gef>g|agf2|e2z2:|
|:c2ga|eAff|ecd2|c2e2|A2A2|e2c2|dega|e2z2:|
|:c2e>f|ggdg|a2e2|Afff|c2d2|AAeA|e2A2|e2z2:|
